src/main/resources/icons/AllIcons/gutter/implementedMethod@2x.svg

<svg xmlns="http://www.w3.org/2000/svg" width="12" height="12" viewBox="0 0 12 12"><rect id="frame" width="12" height="12" fill="none"/><g fill="none" fill-rule="evenodd"><circle cx="4" cy="6" r="4" fill="#62B543" fill-opacity=".7"/><path fill="#6E6E6E" d="M10 9h2l-2.5 3L7 9h2V0h1v9z"/><path fill="#231F20" fill-opacity=".7" d="M4.5 4.6v2.8H5V8H3v-.6h.5V4.6H3V4h2v.6h-.5z"/></g></svg>

<!-- Copyright 2000-2021 JetBrains s.r.o. Use of this source code is governed by the Apache 2.0 license that can be found in the LICENSE file. -->
<svg xmlns="http://www.w3.org/2000/svg" width="12" height="12" viewBox="0 0 12 12">
  <g fill="none" fill-rule="evenodd">
    <circle cx="4" cy="6" r="4" fill="#62B543" fill-opacity=".7"/>
    <path fill="#6E6E6E" d="M10,9 L12,9 L9.5,12 L7,9 L9,9 L9,0 L10,0 L10,9 Z"/>
    <path fill="#231F20" fill-opacity=".7" d="M4.5,4.6 L4.5,7.4 L5,7.4 L5,8 L3,8 L3,7.4 L3.5,7.4 L3.5,4.6 L3,4.6 L3,4 L5,4 L5,4.6 L4.5,4.6 Z"/>
  </g>
</svg>
